icons-optimized/no-duplicate.svg

<svg
  width="32"
  height="32"
  viewBox="0 0 32 32"
  fill="none"
  xmlns="http://www.w3.org/2000/svg"
  stroke-width="1"
>
  <path
    d="M13 10.3845V16.6155C13 16.9827 13.1459 17.3348 13.4055 17.5945C13.6652 17.8541 14.0173 18 14.3845 18H20.6155C20.9827 18 21.3348 17.8541 21.5945 17.5945C21.8541 17.3348 22 16.9827 22 16.6155V10.3845C22 10.0173 21.8541 9.66518 21.5945 9.40552C21.3348 9.14587 20.9827 9 20.6155 9H14.3845C14.0173 9 13.6652 9.14587 13.4055 9.40552C13.1459 9.66518 13 10.0173 13 10.3845Z"
    stroke="#fff"
    stroke-linecap="round"
    stroke-linejoin="round"
  />
  <path
    d="M18 19.9232V20.6155C18 20.9827 17.8541 21.3348 17.5945 21.5945C17.3348 21.8541 16.9827 22 16.6155 22H10.3845C10.0173 22 9.66518 21.8541 9.40552 21.5945C9.14587 21.3348 9 20.9827 9 20.6155V14.3845C9 14.0173 9.14587 13.6652 9.40552 13.4055C9.66518 13.1459 10.0173 13 10.3845 13H11.0768"
    stroke="#fff"
    stroke-linecap="round"
    stroke-linejoin="round"
  />
  <path
    d="M6 24.4108L24.4116 6L25 6.58879L6.5892 25L6 24.4108Z"
    fill="currentColor
"
  />
  <path
    d="M16 29C23.1797 29 29 23.1797 29 16C29 8.8203 23.1797 3 16 3C8.8203 3 3 8.8203 3 16C3 23.1797 8.8203 29 16 29Z"
    stroke="currentColor"
  />
</svg>

<svg xmlns="http://www.w3.org/2000/svg" fill="none" viewBox="0 0 32 32">
  <path
    stroke-linecap="round"
    stroke-linejoin="round"
    d="M13 10.385v6.23A1.385 1.385 0 0 0 14.384 18h6.232A1.385 1.385 0 0 0 22 16.616v-6.232A1.385 1.385 0 0 0 20.616 9h-6.232A1.385 1.385 0 0 0 13 10.384"
  />
  <path
    stroke-linecap="round"
    stroke-linejoin="round"
    d="M18 19.923v.693A1.385 1.385 0 0 1 16.616 22h-6.232A1.385 1.385 0 0 1 9 20.616v-6.232A1.385 1.385 0 0 1 10.384 13h.693"
  />
  <path fill="#555" d="M6 24.41 24.412 6l.588.589L6.59 25z" />
  <path d="M16 29c7.18 0 13-5.82 13-13S23.18 3 16 3 3 8.82 3 16s5.82 13 13 13Z" />
</svg>
